X:191
T: Taohua kai lai hong shi hong
N: C1683
O: China, Jiangxi, Anyuan
S: IV, 244]
R: Xiaodiao, Chage, shuang qianshou]
M: 2/4
L: 1/16
K: C
e3dc2d2 | e8 | A2AcG2EG | A8
A2AcG2EG | A8
E3GA2c2 | G2E2G4
E3GA2c2 | G3EGEG2
A3GEGE2 | c2d2egd2 | e3dede2
A4c4 | A4c4 | e4g4 | e3dc3degd2
z2c4AG | A3cAGEG | A8
A4c4 | A4c4 | A2G2E2G2 | A6c2 | A2G2E2G2 | A8
E3GA2c2 | G2E2G4
E3GA2c2 | G3EGEG2
A3GEGE2 | c3degd2 | e3dede2
c2A2e2A2 | c2c2A2c2 | A2c2G2EG | A4
c2c2 | A2c2A2c2 | G2A2d2B2 | A8

